X: 1448
T: Coming Over The Hills
M:C|
L:1/8
N:"collected by Stack"
B:O'Neill's 1448
Z:"Transcribed by Bob Safranek, rjs@gsp.org"
K:G
BdcA    d2 cA   | D>G ((3{A}GFG)  ABcA  | BdcA G2 GF   | D>F ((3{G}FEF) ABcA :|
K:D
Addc    d2 (dc) | A>d ((3{e}dcd) (ef)ge | fdec d2 (dc) | AGFG          AB=cB |
Ad{e}dc d2 (dc) | A>d ((3{e}dcd) (ef)ge | faef d2 (dc) | AGFG          AB=cA |]


